img/chap.svg

<svg width="75" height="36" viewBox="0 0 75 36" fill="none" xmlns="http://www.w3.org/2000/svg">
<path d="M5.50588 7.73386C11.3554 12.6712 18.434 15.9195 25.9681 17.0901C33.9045 18.3233 42.8975 18.2652 50.0293 16.5227C54.9149 15.3252 55.609 15.1063 56.8337 14.3422C54.7248 11.7239 47.8141 7.2915 48.2076 1.91636C48.2916 0.736768 49.6446 0.124635 50.5775 0.835068C56.4668 5.32553 68.7185 12.6846 73.9004 17.2867C74.4441 17.7693 75.0366 18.359 75.0013 19.0918C74.9703 19.8023 74.3646 20.325 73.8075 20.7584C66.7465 26.214 59.3319 31.205 51.6343 35.6909C50.5775 36.3075 49.1715 35.9768 48.5967 34.8866C48.0926 33.9394 48.6321 33.2067 49.1405 32.5543C51.5457 29.4668 53.951 26.3794 56.3562 23.2874C43.994 28.5643 29.5494 28.3364 17.1871 23.1489C10.25 20.2401 4.48454 14.999 1.10218 8.22981C-0.710591 4.59276 -0.922817 2.30955 5.50588 7.73386Z" fill="#FBC8B8"/>
</svg>

<svg width="75" height="36" fill="none" xmlns="http://www.w3.org/2000/svg"><path d="M5.506 7.734c5.85 4.937 12.928 8.185 20.462 9.356 7.936 1.233 16.93 1.175 24.061-.567 4.886-1.198 5.58-1.417 6.805-2.18-2.11-2.62-9.02-7.051-8.626-12.427.084-1.18 1.437-1.791 2.37-1.08 5.889 4.49 18.14 11.849 23.322 16.45.544.483 1.137 1.073 1.101 1.806-.03.71-.636 1.233-1.194 1.666a205.587 205.587 0 0 1-22.173 14.933c-1.056.616-2.462.286-3.037-.804-.504-.948.035-1.68.544-2.333 2.405-3.087 4.81-6.175 7.215-9.267-12.362 5.277-26.807 5.05-39.169-.138-6.937-2.909-12.702-8.15-16.085-14.92C-.71 4.594-.923 2.31 5.506 7.735Z" fill="#FBC8B8"/></svg>
